X: 29427
T: Nighean Donn A Chuiailein Riomhaich
R: jig
M: 6/8
K: Gmajor
|:e<d|G2 G>B d>eg>d|e>Bd>B A>Be<d|(3GGG G>B d>eg>d|e<gd>B A2:|
|:(3Bcd|g2 g>b a<gg>d|(3Bcd g>d =f>ee<d|1 (3ggg g>b a<gg>d|(3efg d>B A2:|
[2 d>g (3bag a>bg<d|e>B (3dcB A2||

